svgs/sharp-thin/rug.svg

<svg xmlns="http://www.w3.org/2000/svg" viewBox="0 0 640 512"><!--! Font Awesome Pro 6.6.0 by @fontawesome - https://fontawesome.com License - https://fontawesome.com/license (Commercial License) Copyright 2024 Fonticons, Inc. --><path d="M0 64l8 0 24 0 8 0 8 0 544 0 8 0 8 0 24 0 8 0 0 16-8 0-24 0 0 80 24 0 8 0 0 16-8 0-24 0 0 72 24 0 8 0 0 16-8 0-24 0 0 72 24 0 8 0 0 16-8 0-24 0 0 80 24 0 8 0 0 16-8 0-24 0-8 0-8 0L48 448l-8 0-8 0L8 448l-8 0 0-16 8 0 24 0 0-80L8 352l-8 0 0-16 8 0 24 0 0-72L8 264l-8 0 0-16 8 0 24 0 0-72L8 176l-8 0 0-16 8 0 24 0 0-80L8 80 0 80 0 64zm48 96l0 16 0 72 0 16 0 72 0 16 0 80 80 0 0-352L48 80l0 80zm96 272l352 0 0-352L144 80l0 352zM512 80l0 352 80 0 0-80 0-16 0-72 0-16 0-72 0-16 0-80-80 0z"/></svg>

<svg xmlns="http://www.w3.org/2000/svg" viewBox="0 0 640 512"><!--! Font Awesome Pro 6.5.2 by @fontawesome - https://fontawesome.com License - https://fontawesome.com/license (Commercial License) Copyright 2024 Fonticons, Inc. --><path d="M0 64H8 32h8 8H592h8 8 24 8V80h-8H608v80h24 8v16h-8H608v72h24 8v16h-8H608v72h24 8v16h-8H608v80h24 8v16h-8H608h-8-8H48 40 32 8 0V432H8 32V352H8 0V336H8 32V264H8 0V248H8 32V176H8 0V160H8 32V80H8 0V64zm48 96v16 72 16 72 16 80h80V80H48v80zm96 272H496V80H144V432zM512 80V432h80V352 336 264 248 176 160 80H512z"/></svg>
